exported-svg/phone-off.svg

<svg height="24" viewBox="0 0 24 24" width="24" xmlns="http://www.w3.org/2000/svg"><path d="m7.85912426 16.8479825-6.50557087 6.5055709c-.19526215.1952621-.51184463.1952621-.70710678 0-.19526215-.1952622-.19526215-.5118446 0-.7071068l9.62541179-9.6254118c.0161252-.0227181.0343732-.0443911.054744-.0647439.0202626-.0202448.0418296-.0383882.0644302-.0544302l12.255414-12.25541409c.1952622-.19526215.5118446-.19526215.7071068 0 .1952621.19526215.1952621.51184463 0 .70710678l-11.9557433 11.95574331c.7982762.7483565 1.6736462 1.4101667 2.6114989 1.9742899l.9991214-.9991128c.6939922-.6862688 1.7239063-.9059187 2.636372-.5629224.8719432.3253671 1.7778957.5510492 2.7051734.6733694 1.2425116.1756199 2.162326 1.2451287 2.1501225 2.4950792l-.0000038 2.9980578c.0027344.7039223-.2913267 1.3763956-.8100013 1.8522438-.5187126.4758832-1.2140174.7110291-1.9241044.6467726-3.1549116-.3428069-6.1854263-1.4208695-8.8440022-3.1449737-1.09690206-.6964798-2.12269363-1.4983978-3.06286229-2.394118zm.70732605-.707326c.88823624.8440626 1.85701859 1.6003605 2.89560029 2.2598337 2.5313852 1.6415941 5.4125399 2.666524 8.4029535 2.9915393.420648.0380161.8378308-.1030715 1.1490584-.3886014.3112219-.2855246.4876805-.6890587.4860358-1.1134281l.0000238-3.0048719c.0073367-.7529396-.544578-1.3946752-1.2855008-1.4994209-.9974523-.1315538-1.9768207-.3755246-2.9205517-.727681-.5481563-.2060513-1.1661047-.0742614-1.5805162.3355272l-1.27 1.27c-.1591563.1591563-.4050381.1923502-.6007.0810942-1.1400982-.6482754-2.1983098-1.4298681-3.1524959-2.3278983l-2.12390722 2.1239072zm-2.9569405-3.6027071c.15024939.2316889.08422965.541311-.14745922.6915604s-.54131101.0842297-.6915604-.1474592c-1.72669493-2.6626131-2.80475752-5.69312781-3.14846105-8.85705038-.06315849-.69890958.17034001-1.39218447.64345722-1.91047368.47308235-.51825101 1.14220728-.8138408 1.84451364-.8147216l2.99512814.00012048c1.25482237-.01222723 2.3243312.90758719 2.50057905 2.15469584.12169221.92268068.34737432 1.82863315.67231901 2.6994483.3434187.91359379.1237688 1.94350783-.56447281 2.63948383l-1.27 1.27000001c-.19526215.1952621-.51184463.1952621-.70710678 0-.19526215-.1952622-.19526215-.51184464 0-.70710679l1.26802724-1.26801617c.4117613-.4163953.54355125-1.03434373.33707753-1.58362802-.35173398-.94260307-.59570475-1.92197146-.72663056-2.91482664-.10537373-.74551989-.74710935-1.29743462-1.50492082-1.2900741l-2.99944157-.00000031c-.421123.00047033-.82264808.17784635-1.10651323.4888142-.28387033.31097353-.42396943.72693846-.38697097 1.13727326.32591155 2.99942065 1.35084143 5.88057537 2.99243558 8.41196057z"/></svg>

<?xml version="1.0" encoding="UTF-8"?>
<svg width="24px" height="24px" viewBox="0 0 24 24" version="1.1" xmlns="http://www.w3.org/2000/svg" xmlns:xlink="http://www.w3.org/1999/xlink">
    <!-- Generator: Sketch 55.2 (78181) - https://sketchapp.com -->
    <title>phone-off</title>
    <desc>Created with Sketch.</desc>
    <g id="phone-off" stroke="none" stroke-width="1" fill="none" fill-rule="evenodd">
        <path d="M7.85912426,16.8479825 L1.35355339,23.3535534 C1.15829124,23.5488155 0.841708755,23.5488155 0.646446609,23.3535534 C0.451184464,23.1582912 0.451184464,22.8417088 0.646446609,22.6464466 L10.2718584,13.0210348 C10.2879836,12.9983167 10.3062316,12.9766437 10.3266024,12.9562909 C10.346865,12.9360461 10.368432,12.9179027 10.3910326,12.9018607 L22.6464466,0.646446609 C22.8417088,0.451184464 23.1582912,0.451184464 23.3535534,0.646446609 C23.5488155,0.841708755 23.5488155,1.15829124 23.3535534,1.35355339 L11.3978101,13.3092967 C12.1960863,14.0576532 13.0714563,14.7194634 14.009309,15.2835866 L15.0084304,14.2844738 C15.7024226,13.598205 16.7323367,13.3785551 17.6448024,13.7215514 C18.5167456,14.0469185 19.4226981,14.2726006 20.3499758,14.3949208 C21.5924874,14.5705407 22.5123018,15.6400495 22.5000983,16.89 L22.5000945,19.8880578 C22.5028289,20.5919801 22.2087678,21.2644534 21.6900932,21.7403016 C21.1713806,22.2161848 20.4760758,22.4513307 19.7659888,22.3870742 C16.6110772,22.0442673 13.5805625,20.9662047 10.9219866,19.2421005 C9.82508454,18.5456207 8.79929297,17.7437027 7.85912431,16.8479825 Z M8.56645031,16.1406565 C9.45468655,16.9847191 10.4234689,17.741017 11.4620506,18.4004902 C13.9934358,20.0420843 16.8745905,21.0670142 19.8650041,21.3920295 C20.2856521,21.4300456 20.7028349,21.288958 21.0140625,21.0034281 C21.3252844,20.7179035 21.501743,20.3143694 21.5000983,19.89 L21.5001221,16.8851281 C21.5074588,16.1321885 20.9555441,15.4904529 20.2146213,15.3857072 C19.217169,15.2541534 18.2378006,15.0101826 17.2940696,14.6580262 C16.7459133,14.4519749 16.1279649,14.5837648 15.7135534,14.9935534 L14.4435534,16.2635534 C14.2843971,16.4227097 14.0385153,16.4559036 13.8428534,16.3446476 C12.7027552,15.6963722 11.6445436,14.9147795 10.6903575,14.0167493 L8.56645028,16.1406565 Z M5.60950981,12.5379494 C5.7597592,12.7696383 5.69373946,13.0792604 5.46205059,13.2295098 C5.23036172,13.3797592 4.92073958,13.3137395 4.77049019,13.0820506 C3.04379526,10.4194375 1.96573267,7.38892279 1.62202914,4.22500022 C1.55887065,3.52609064 1.79236915,2.83281575 2.26548636,2.31452654 C2.73856871,1.79627553 3.40769364,1.50068574 4.11,1.49980494 L7.10512814,1.49992542 C8.35995051,1.48769819 9.42945934,2.40751261 9.60570719,3.65462126 C9.7273994,4.57730194 9.95308151,5.48325441 10.2780262,6.35406956 C10.6214449,7.26766335 10.401795,8.29757739 9.71355339,8.99355339 L8.44355339,10.2635534 C8.24829124,10.4588155 7.93170876,10.4588155 7.73644661,10.2635534 C7.54118446,10.0682912 7.54118446,9.75170876 7.73644661,9.55644661 L9.00447385,8.28843044 C9.41623515,7.87203514 9.5480251,7.25408671 9.34155138,6.70480242 C8.9898174,5.76219935 8.74584663,4.78283096 8.61492082,3.78997578 C8.50954709,3.04445589 7.86781147,2.49254116 7.11,2.49990168 L4.11055843,2.49990137 C3.68943543,2.5003717 3.28791035,2.67774772 3.0040452,2.98871557 C2.72017487,3.2996891 2.58007577,3.71565403 2.61707423,4.12598883 C2.94298578,7.12540948 3.96791566,10.0065642 5.60950981,12.5379494 Z" id="Combined-Shape" fill="#000000" fill-rule="nonzero"></path>
    </g>
</svg>
